assets/Linked paperclips/Flat/linked_paperclips_flat.svg

<svg width="32" height="32" viewBox="0 0 32 32" fill="none" xmlns="http://www.w3.org/2000/svg">
<path d="M9.5 6.5L10.06 7.32C12.03 7.67 13.45 9.35 13.46 11.23V12.78L12.6167 13L11.82 12.26V11.02C11.82 9.93 10.97 9.01 9.84002 8.79L9 9.5L8.35002 8.91C7.68002 9.16 7.15002 9.66 6.92002 10.29C6.84002 10.52 6.78002 10.76 6.78002 11.02V21.7C6.78002 22.17 7.20002 22.55 7.72002 22.55C8.24002 22.55 8.66002 22.17 8.66002 21.7V14.52C8.66002 14.11 9.03002 13.78 9.48002 13.78C9.93002 13.78 10.3 14.11 10.3 14.52V21.5C10.3 22.7 9.40002 23.83 8.09002 24.01C7.63002 24.08 7.20002 24.02 6.81002 23.88C6.80002 23.87 6.79002 23.86 6.79002 23.85V23.87C5.83002 23.53 5.15002 22.69 5.15002 21.7V10.72C5.15002 10.33 5.26002 9.98 5.44002 9.66C5.94002 8.47 7.10002 7.58 8.50002 7.32L9 6.5H9.5Z" fill="#BEBEBE"/>
<path d="M11.81 14.11L12.6167 13.6266L13.45 14.44V23.69C13.45 26.78 10.48 29.25 7 28.86C4.1 28.53 2 26.14 2 23.48V14.53C2 14.12 2.37 13.78 2.82 13.78C3.27 13.78 3.64 14.11 3.64 14.52V23.69C3.64 25.85 5.68 27.59 8.1 27.39C10.24 27.22 11.81 25.45 11.81 23.49V14.11Z" fill="#BEBEBE"/>
<path d="M13.5501 4.63C11.9501 4.63 10.5801 5.75 10.0601 7.32C9.99004 7.31176 9.92335 7.30011 9.85727 7.28857C9.76305 7.27212 9.67004 7.25588 9.57012 7.25C9.20012 7.22 8.84012 7.26 8.50012 7.32C9.09012 4.78 11.3101 3 13.7601 3H22.7101C23.1301 3 23.4601 3.36 23.4601 3.81C23.4601 4.26 23.1301 4.63 22.7201 4.63H13.5501Z" fill="#9B9B9B"/>
<path d="M26.5301 6.14999C26.9101 6.14999 27.2601 6.25999 27.5801 6.43999C29.0601 7.06999 30.1001 8.68999 30.0001 10.57C29.8701 12.8 28.0501 14.45 26.0201 14.45H13.5501C13.5351 14.45 13.5176 14.4475 13.5001 14.445C13.4826 14.4425 13.4651 14.44 13.4501 14.44C12.8701 14.42 12.3201 14.31 11.8101 14.11C9.8401 13.35 8.4201 11.31 8.3501 8.90999C8.5901 8.81999 8.8401 8.76999 9.1001 8.74999C9.10797 8.74887 9.11572 8.74774 9.12337 8.74663C9.18372 8.73787 9.23797 8.72999 9.3001 8.72999C9.4801 8.72999 9.6601 8.74999 9.8301 8.77999C9.8301 8.83499 9.8326 8.88749 9.8351 8.93999C9.8376 8.99249 9.8401 9.04499 9.8401 9.09999C9.9601 10.49 10.7401 11.63 11.8201 12.26C12.3201 12.56 12.8801 12.73 13.4601 12.78C13.4934 12.7833 13.5268 12.7878 13.5601 12.7922C13.6268 12.8011 13.6934 12.81 13.7601 12.81H26.2401C27.5001 12.81 28.5301 11.69 28.5301 10.3C28.5301 10.265 28.5251 10.2325 28.5201 10.2C28.5151 10.1675 28.5101 10.135 28.5101 10.1C28.4301 9.07999 27.8101 8.23999 26.9601 7.91999C26.7301 7.83999 26.4901 7.77999 26.2301 7.77999H15.5401C15.0701 7.77999 14.6901 8.19999 14.6901 8.71999C14.6901 9.23999 15.0701 9.65999 15.5401 9.65999H22.7201C23.1301 9.65999 23.4601 10.03 23.4601 10.48C23.4601 10.93 23.1301 11.3 22.7201 11.3H15.7401C14.5401 11.3 13.4101 10.4 13.2301 9.08999C13.1601 8.62999 13.2201 8.19999 13.3601 7.80999C13.3701 7.79999 13.3801 7.78999 13.3901 7.78999H13.3701C13.7101 6.82999 14.5501 6.14999 15.5401 6.14999H26.5301Z" fill="#9B9B9B"/>
</svg>

<svg xmlns="http://www.w3.org/2000/svg" width="32" height="32" fill="none"><path fill="#BEBEBE" d="m9.5 6.5.56.82c1.97.35 3.39 2.03 3.4 3.91v1.55l-.843.22-.797-.74v-1.24c0-1.09-.85-2.01-1.98-2.23L9 9.5l-.65-.59c-.67.25-1.2.75-1.43 1.38-.08.23-.14.47-.14.73V21.7c0 .47.42.85.94.85s.94-.38.94-.85v-7.18c0-.41.37-.74.82-.74.45 0 .82.33.82.74v6.98c0 1.2-.9 2.33-2.21 2.51-.46.07-.89.01-1.28-.13-.01-.01-.02-.02-.02-.03v.02c-.96-.34-1.64-1.18-1.64-2.17V10.72c0-.39.11-.74.29-1.06.5-1.19 1.66-2.08 3.06-2.34L9 6.5h.5Z"/><path fill="#BEBEBE" d="m11.81 14.11.807-.483.833.813v9.25c0 3.09-2.97 5.56-6.45 5.17-2.9-.33-5-2.72-5-5.38v-8.95c0-.41.37-.75.82-.75.45 0 .82.33.82.74v9.17c0 2.16 2.04 3.9 4.46 3.7 2.14-.17 3.71-1.94 3.71-3.9v-9.38Z"/><path fill="#9B9B9B" d="M13.55 4.63c-1.6 0-2.97 1.12-3.49 2.69-.07-.008-.137-.02-.203-.031-.094-.017-.187-.033-.287-.039-.37-.03-.73.01-1.07.07C9.09 4.78 11.31 3 13.76 3h8.95c.42 0 .75.36.75.81 0 .45-.33.82-.74.82h-9.17Z"/><path fill="#9B9B9B" d="M26.53 6.15c.38 0 .73.11 1.05.29 1.48.63 2.52 2.25 2.42 4.13-.13 2.23-1.95 3.88-3.98 3.88H13.55c-.015 0-.032-.002-.05-.005-.017-.002-.035-.005-.05-.005-.58-.02-1.13-.13-1.64-.33-1.97-.76-3.39-2.8-3.46-5.2.24-.09.49-.14.75-.16l.023-.003c.06-.01.115-.017.177-.017.18 0 .36.02.53.05 0 .055.003.107.005.16.003.052.005.105.005.16.12 1.39.9 2.53 1.98 3.16.5.3 1.06.47 1.64.52l.1.012c.067.01.133.018.2.018h12.48c1.26 0 2.29-1.12 2.29-2.51 0-.035-.005-.068-.01-.1a.645.645 0 0 1-.01-.1c-.08-1.02-.7-1.86-1.55-2.18-.23-.08-.47-.14-.73-.14H15.54c-.47 0-.85.42-.85.94s.38.94.85.94h7.18c.41 0 .74.37.74.82 0 .45-.33.82-.74.82h-6.98c-1.2 0-2.33-.9-2.51-2.21-.07-.46-.01-.89.13-1.28.01-.01.02-.02.03-.02h-.02c.34-.96 1.18-1.64 2.17-1.64h10.99Z"/></svg>
